docs/icons/elementui.svg

<svg xmlns="http://www.w3.org/2000/svg" xmlns:xlink="http://www.w3.org/1999/xlink" width="30" height="30" viewBox="0 0 30 30" fill="none"><defs><rect id="path_0" x="0" y="0" width="30" height="30" /></defs><g opacity="1" transform="translate(0 0)  rotate(0 15 15)"><mask id="bg-mask" fill="white"><use xlink:href="#path_0"></use></mask><g mask="url(#bg-mask)" ><path id="矩形 1" fill-rule="evenodd"  transform="translate(0 0)  rotate(0 15 15)" opacity="1" d="M0,30L30,30L30,0L0,0L0,30Z " /><path id="分组 1" fill-rule="evenodd" style="fill:#409EFF" transform="translate(5.362574854780405 4)  rotate(0 9.637425145219616 11)" opacity="1" d="M9.12 0.12L0.56 5.07C0.56 5.07 -0.01 5.41 0 5.87C0.01 6.32 0 16.16 0 16.16C0 16.16 0.01 16.5 0.32 16.71C0.63 16.93 9.19 21.9 9.19 21.9C9.19 21.9 9.55 22.13 10.07 21.9C10.61 21.6 18.79 16.87 18.79 16.87C18.79 16.87 19.27 16.67 19.27 15.76C19.28 14.91 19.27 6.19 19.27 6.19C19.27 6.19 19.37 5.38 18.55 4.99C17.71 4.52 10.15 0.12 10.15 0.12C10.15 0.12 9.64 -0.15 9.12 0.12Z M2.00203 15.0312C2.00203 15.0312 2.01203 15.3012 2.25203 15.4712C2.50203 15.6412 9.22202 19.5312 9.22202 19.5312C9.22202 19.5312 9.50203 19.7112 9.91203 19.5312C10.332 19.3012 16.752 15.6012 16.752 15.6012C16.752 15.6012 17.132 15.4412 17.132 14.7212C17.132 14.5212 17.132 13.7212 17.132 12.7112L9.57203 17.3012L9.57203 15.5412C9.57203 14.8212 10.122 14.3512 10.122 14.3512L16.822 10.3112C17.072 10.0512 17.122 9.63117 17.132 9.47117L17.132 7.69117L9.57203 12.2712L9.57203 10.4412C9.57203 9.72117 10.052 9.40117 10.052 9.40117L15.852 5.89117C14.102 4.88117 9.97202 2.49117 9.97202 2.49117C9.97202 2.49117 9.57203 2.27117 9.16203 2.49117L2.44203 6.36117C2.44203 6.36117 1.99203 6.63117 2.00203 6.98117C2.01203 7.34117 2.00203 15.0312 2.00203 15.0312Z M15.852 5.89117L15.852 5.89117C15.852 5.89117 15.852 5.89117 15.852 5.89117L15.852 5.89117Z " /></g></g></svg>

<svg xmlns="http://www.w3.org/2000/svg" xmlns:xlink="http://www.w3.org/1999/xlink" width="30" height="30" fill="none" xmlns:v="https://vecta.io/nano"><defs><path id="A" d="M0 0h30v30H0z"/></defs><g transform="matrix(1 0 0 1 0 0)"><mask id="B" fill="#fff"><use xlink:href="#A"/></mask><g mask="url(#B)"><path fill-rule="evenodd" transform="matrix(1 0 0 1 5.362575 4)" d="M9.12.12L.56 5.07s-.57.34-.56.8c.01.45 0 10.29 0 10.29a.74.74 0 0 0 .32.55c.31.22 8.87 5.19 8.87 5.19s.36.23.88 0c.54-.3 8.72-5.03 8.72-5.03s.48-.2.48-1.11V6.19s.1-.81-.72-1.2L10.15.12s-.51-.27-1.03 0zM2.002 15.031a.61.61 0 0 0 .25.44c.25.17 6.97 4.06 6.97 4.06s.28.18.69 0c.42-.23 6.84-3.93 6.84-3.93s.38-.16.38-.88v-2.01l-7.56 4.59v-1.76c0-.72.55-1.19.55-1.19l6.7-4.04c.25-.26.3-.68.31-.84v-1.78l-7.56 4.58v-1.83c0-.72.48-1.04.48-1.04l5.8-3.51-5.88-3.4s-.4-.22-.81 0l-6.72 3.87s-.45.27-.44.62c.01.36 0 8.05 0 8.05zm13.85-9.14h0 0z" fill="#409eff"/></g></g></svg>
